Newaita-dark/actions/22/draw-triangle4.svg

<svg height="22" viewBox="0 0 22 22" width="22" xmlns="http://www.w3.org/2000/svg"><path d="m10.960938 18.359375c.308593-.015625.585937-.1875.738281-.457031l7.277343-12.734375c.160157-.277344.160157-.625 0-.902344-.164062-.277344-.460937-.449219-.785156-.449219h-14.554687c-.320313 0-.621094.171875-.78125.449219-.160157.277344-.164063.625-.003907.902344l7.277344 12.734375c.167969.296875.488282.472656.832032.457031zm-.046876-2.730469-5.714843-10.003906h11.433593zm0 0" fill="#e0e0e0"/></svg>

<?xml version="1.0" encoding="UTF-8"?>
<svg xmlns="http://www.w3.org/2000/svg" xmlns:xlink="http://www.w3.org/1999/xlink" width="22px" height="22px" viewBox="0 0 22 22" version="1.1">
<g id="surface1">
<path style=" stroke:none;fill-rule:nonzero;fill:rgb(87.843138%,87.843138%,87.843138%);fill-opacity:1;" d="M 10.960938 18.359375 C 11.269531 18.34375 11.546875 18.171875 11.699219 17.902344 L 18.976562 5.167969 C 19.136719 4.890625 19.136719 4.542969 18.976562 4.265625 C 18.8125 3.988281 18.515625 3.816406 18.191406 3.816406 L 3.636719 3.816406 C 3.316406 3.816406 3.015625 3.988281 2.855469 4.265625 C 2.695312 4.542969 2.691406 4.890625 2.851562 5.167969 L 10.128906 17.902344 C 10.296875 18.199219 10.617188 18.375 10.960938 18.359375 Z M 10.914062 15.628906 L 5.199219 5.625 L 16.632812 5.625 Z M 10.914062 15.628906 "/>
</g>
</svg>
